X:1
T:Title
%%score ( 1 2 ) { 3 | 4 }
L:1/8
Q:1/4=86
M:6/8
K:G
V:1 treble nm="Grand Piano, Unnamed-000"
V:2 treble 
V:3 bass nm="Choir Pad, Unnamed-001"
V:4 bass 
V:1
 [GB]2 [FA] [EG]2 E | [^DF][DG][DF] E3 | [GB]2 [FA] [EG]2 E | [^DF][DG][DF] E3 | %4
w: By~John~Henry~Hopkins,~Jr.,~1857 * * *||||
 [EG]2 [EG] [FA]2 [FA] | [GB]2 [GB] [Gd][Fc][GB] | [EA][EB][EA] [EG]2 [^DF] | z3 z F2 | z6 | %9
w: |||||
 [DG]2 D [EG]2 E | [DG]3 [DG]2 [DG] | [DG]2 D [EG]2 E | [DG]3 [EG]2 [EG] | [FA]2 [GB] [Gc]2 [GB] | %14
w: |||||
 [FA]2 [GB] [DG]2 [DG] | [DG]2 D [EG]2 E | [DG]6 |] %17
w: |||
V:2
 x6 | x6 | x6 | x6 | x6 | x6 | x6 | E3- E/ z/ D2- | [DA]3 [DG]2 [DG] | x6 | x6 | x6 | x6 | x6 | %14
 x6 | x6 | x6 |] %17
V:3
 B,2 B, B,2 G, | A,B,A, G,3 | B,2 B, B,2 G, | A,B,A, G,3 | B,2 B,[K:treble] D2 D | D2 D B,CD | %6
 CCC[K:bass] B,2 A, | G,3- G,/ z/ A,2 | C3 B,2 B, | B,2 B, G,2 A, | B,3 G,2 A, | B,3 B,2 B, | %12
 B,3 B,2 B, | D2 D E2 D | D2 D[K:bass] B,2 B, | B,2 B, G,2 A, | B,6 |] %17
V:4
 E,2 E, E,2 E, | B,,B,,B,, E,3 | E,2 E, E,2 E, | B,,B,,B,, E,3 | E,2 E, D,2 D, | G,2 G, z A,G, | %6
 A,A,A, z2 B,, | E,3- E,/ z/ D,2- | D,3 G,2 G, | G,2 G, C,2 C, | G,3 C,2 C, | G,3 G,2 G, | %12
 G,3 E,2 E, | D,2 G, C,2 G, | D,2 G, G,2 G, | G,2 G, C,2 C, | G,,6 |] %17

